UserFile/Effect/redialc/ikClut_RC/LUT/RcView.CUBE
#Created by: Adobe Photoshop Export Color Lookup Plugin
#Copyright: (C) Copyright 2018 RedialC(个人)
TITLE "RCvIEW"
#LUT size
LUT_3D_SIZE 5
#data domain
#LUT data points
DOMAIN_MIN 0.000000 0.000000 0.000000
DOMAIN_MAX 0.903226 0.903226 0.903226
0.023285 0.023285 0.023285
0.185547 0.027496 0.023285
0.435150 0.042267 0.024963
0.701324 0.066986 0.030975
0.905701 0.090973 0.033783
0.023285 0.199982 0.068146
0.202576 0.198547 0.054810
0.531311 0.218292 0.032379
0.758484 0.241974 0.033783
0.913940 0.295166 0.072174
0.025970 0.464020 0.174866
0.209625 0.445923 0.136139
0.498169 0.460510 0.114685
0.762329 0.491241 0.082825
0.918243 0.526703 0.153015
0.032135 0.722809 0.287506
0.223145 0.714478 0.261871
0.491455 0.703247 0.213654
0.749969 0.720886 0.195709
0.923431 0.735962 0.238098
0.046082 0.908234 0.336090
0.253204 0.912720 0.330994
0.513062 0.920166 0.317200
0.753296 0.919739 0.290192
0.921051 0.921844 0.305847
0.023285 0.023590 0.172882
0.172485 0.023285 0.167023
0.408661 0.029968 0.167023
0.684082 0.051025 0.173126
0.903290 0.073029 0.177002
0.023285 0.185089 0.206451
0.181183 0.192352 0.210236
0.485352 0.203918 0.193756
0.759460 0.219269 0.178650
0.913666 0.273346 0.213562
0.023834 0.420349 0.297852
0.188904 0.448578 0.311707
0.466675 0.447998 0.278900
0.759583 0.473389 0.245209
0.918243 0.516235 0.298462
0.030151 0.695313 0.420197
0.199371 0.716187 0.429321
0.478424 0.708679 0.400116
0.742401 0.716034 0.369720
0.924591 0.735229 0.395935
0.033997 0.905579 0.481506
0.231934 0.911285 0.485474
0.490295 0.918365 0.479004
0.738220 0.919128 0.449310
0.921936 0.922333 0.460480
0.023285 0.023926 0.322174
0.166199 0.023285 0.318268
0.383514 0.023285 0.309418
0.663055 0.036957 0.314331
0.893951 0.056793 0.319031
0.023285 0.187164 0.360809
0.166016 0.193756 0.371460
0.430389 0.186310 0.346008
0.734833 0.197723 0.330872
0.912842 0.233704 0.343933
0.023346 0.397766 0.429565
0.169800 0.432434 0.467651
0.429871 0.436432 0.451111
0.734131 0.455200 0.420105
0.917633 0.494629 0.437134
0.028229 0.666748 0.551971
0.176941 0.699890 0.579346
0.446320 0.708435 0.570496
0.724426 0.709076 0.543274
0.924530 0.727081 0.543152
0.033142 0.894257 0.627838
0.211395 0.905334 0.631531
0.465149 0.916321 0.637787
0.729248 0.921661 0.622711
0.922577 0.922150 0.615692
0.023285 0.024231 0.473236
0.166168 0.023285 0.470856
0.362000 0.023285 0.462067
0.637299 0.026733 0.457397
0.879730 0.042297 0.462555
0.023285 0.190033 0.516785
0.165314 0.197113 0.533478
0.394409 0.189331 0.515442
0.702209 0.182678 0.484161
0.912292 0.197540 0.477661
0.023865 0.405396 0.592346
0.168732 0.440826 0.641388
0.396240 0.440247 0.625061
0.700653 0.426117 0.577271
0.916046 0.444946 0.556854
0.027252 0.644501 0.681763
0.173096 0.688232 0.728088
0.412659 0.692413 0.717285
0.703613 0.701874 0.707306
0.923798 0.709229 0.679260
0.032013 0.877258 0.761749
0.193939 0.893768 0.772186
0.441254 0.908844 0.778076
0.711304 0.921631 0.780090
0.922760 0.920502 0.759613
0.023285 0.024872 0.619415
0.166168 0.023499 0.617554
0.346313 0.023285 0.609009
0.608917 0.025208 0.601898
0.864349 0.031067 0.599731
0.023285 0.194244 0.667938
0.164825 0.195648 0.672607
0.373749 0.191650 0.680420
0.677368 0.181671 0.640320
0.910278 0.177521 0.615112
0.024597 0.413513 0.750793
0.168579 0.433105 0.779633
0.369415 0.446167 0.791107
0.676819 0.434082 0.759155
0.912750 0.413208 0.697083
0.027954 0.648834 0.835083
0.173065 0.678284 0.869049
0.384308 0.690216 0.872284
0.680023 0.698547 0.864624
0.918579 0.690308 0.827637
0.031006 0.860046 0.892456
0.179993 0.882172 0.911652
0.418915 0.896545 0.917084
0.689758 0.911285 0.922180
0.921844 0.916321 0.913910
