UserFile/Effect/redialc/ikClut_RC/LUT/RcView.CUBE
#Created by: Adobe Photoshop Export Color Lookup Plugin
#Copyright: (C) Copyright 2018 RedialC(个人)
TITLE "RCvIEW"
#LUT size
LUT_3D_SIZE 8
#data domain
#LUT data points
DOMAIN_MIN 0.000000 0.000000 0.000000
DOMAIN_MAX 0.903226 0.903226 0.903226
0.023285 0.023285 0.023285
0.104584 0.024750 0.023285
0.215973 0.028595 0.023285
0.355194 0.036591 0.023468
0.518463 0.049011 0.026794
0.667694 0.063416 0.030273
0.796478 0.077637 0.032776
0.905701 0.090973 0.033783
0.023285 0.114136 0.043823
0.108551 0.113464 0.039154
0.257019 0.118225 0.025146
0.416687 0.127808 0.026001
0.572205 0.142426 0.029602
0.707336 0.157867 0.032440
0.820160 0.172180 0.033783
0.912842 0.198486 0.047211
0.023285 0.231476 0.078125
0.109253 0.225800 0.067444
0.238922 0.230133 0.061249
0.434998 0.246307 0.047485
0.613037 0.256042 0.035095
0.737793 0.267639 0.033783
0.827484 0.290741 0.047546
0.914429 0.328796 0.081879
0.024109 0.379242 0.135498
0.112610 0.370422 0.117371
0.236359 0.360016 0.097351
0.409485 0.376831 0.093781
0.601013 0.401703 0.077698
0.739594 0.410980 0.060730
0.829193 0.433044 0.084656
0.916962 0.463348 0.129272
0.028015 0.546600 0.214172
0.118011 0.539154 0.194397
0.249878 0.528961 0.168610
0.401428 0.520508 0.142456
0.579926 0.543274 0.137512
0.733978 0.562469 0.114349
0.832062 0.575867 0.137451
0.919678 0.589813 0.178406
0.031433 0.690338 0.275177
0.122986 0.685730 0.261353
0.258240 0.679382 0.242249
0.419739 0.672729 0.218964
0.578918 0.674622 0.198639
0.722443 0.688293 0.184509
0.829315 0.701111 0.200195
0.922791 0.708252 0.227478
0.033691 0.813904 0.319153
0.126312 0.811523 0.309113
0.264069 0.807861 0.295502
0.426544 0.804291 0.279053
0.574127 0.799042 0.249634
0.727020 0.809937 0.245148
0.823700 0.811462 0.254852
0.925323 0.817352 0.266846
0.046082 0.908234 0.336090
0.156158 0.910492 0.333618
0.287811 0.913574 0.329926
0.435486 0.917816 0.323242
0.590118 0.921387 0.308807
0.721008 0.919739 0.290466
0.827118 0.921997 0.301636
0.921051 0.921844 0.305847
0.023285 0.023468 0.109650
0.101990 0.023285 0.106476
0.207245 0.024628 0.106110
0.341797 0.029907 0.106110
0.503540 0.040924 0.108765
0.657654 0.054230 0.112366
0.789154 0.067505 0.115082
0.905243 0.080414 0.116547
0.023285 0.109589 0.125488
0.102539 0.111755 0.126404
0.232483 0.113007 0.117126
0.409241 0.118866 0.109924
0.571442 0.132629 0.112213
0.707245 0.147644 0.115082
0.822113 0.161530 0.116577
0.912720 0.186707 0.129608
0.023285 0.217957 0.155182
0.103149 0.225647 0.158630
0.223236 0.225128 0.150146
0.410431 0.236298 0.137024
0.595795 0.246399 0.127075
0.738800 0.254883 0.118225
0.827362 0.276855 0.129944
0.914276 0.317078 0.162811
0.023285 0.354614 0.207642
0.103973 0.371002 0.214905
0.228271 0.364685 0.197693
0.388977 0.369904 0.185181
0.587219 0.392273 0.169373
0.737091 0.400421 0.153412
0.829010 0.419983 0.165497
0.916779 0.455261 0.209900
0.026520 0.522491 0.286499
0.108215 0.540070 0.294250
0.236481 0.533478 0.273193
0.389526 0.520874 0.242249
0.566986 0.537781 0.232971
0.730286 0.556213 0.210144
0.831787 0.567017 0.216858
0.920349 0.588470 0.270111
0.030243 0.674072 0.351257
0.112305 0.686737 0.356842
0.243866 0.682159 0.341461
0.403534 0.675598 0.320465
0.562286 0.669556 0.294373
0.715332 0.685150 0.283264
0.830078 0.697937 0.279846
0.923431 0.707764 0.317963
0.032990 0.803192 0.397552
0.114716 0.812225 0.401337
0.248962 0.809418 0.390167
0.409973 0.805756 0.375275
0.572906 0.800659 0.354889
0.717651 0.805542 0.341278
0.823456 0.810913 0.334991
0.925934 0.817200 0.356232
0.038116 0.907593 0.419617
0.145355 0.909760 0.421204
0.275696 0.912750 0.418793
0.422302 0.916718 0.414215
0.578430 0.921051 0.403351
0.711365 0.919495 0.381134
0.826904 0.922028 0.381958
0.921539 0.922211 0.394043
0.023285 0.023621 0.194000
0.101776 0.023285 0.192139
0.199341 0.023285 0.187195
0.329102 0.024780 0.186859
0.487518 0.033630 0.188690
0.645966 0.045776 0.192322
0.780670 0.058228 0.195251
0.902557 0.070618 0.197174
0.023285 0.109528 0.210632
0.101532 0.111145 0.214508
0.212708 0.108551 0.204132
0.380707 0.110229 0.194733
0.558563 0.120239 0.192078
0.698120 0.134796 0.195221
0.819122 0.148438 0.197174
0.912415 0.167542 0.204895
0.023285 0.212128 0.234924
0.101776 0.221497 0.245117
0.211060 0.222015 0.240173
0.378754 0.227478 0.228699
0.570435 0.238647 0.220673
0.724976 0.247833 0.211182
0.827240 0.261322 0.210846
0.914063 0.303619 0.242859
0.023285 0.338928 0.280304
0.101868 0.359894 0.300537
0.215759 0.362671 0.292664
0.367249 0.362305 0.277985
0.569672 0.380371 0.262146
0.727234 0.389465 0.246338
0.828827 0.403717 0.245667
0.916504 0.444427 0.289215
0.025360 0.500031 0.356873
0.105316 0.527863 0.380127
0.222839 0.532318 0.372009
0.377533 0.527039 0.350586
0.552094 0.531769 0.330322
0.720184 0.548828 0.307312
0.831482 0.555145 0.295532
0.920135 0.581696 0.350372
0.029022 0.656342 0.425232
0.108978 0.677490 0.441895
0.229309 0.681610 0.436401
0.386566 0.678314 0.420959
0.551788 0.669769 0.394165
0.706024 0.681580 0.382965
0.829865 0.692474 0.359070
0.924042 0.706482 0.408356
0.032074 0.789642 0.474152
0.111633 0.805725 0.486145
0.233826 0.809082 0.482300
0.392883 0.807037 0.470795
0.561920 0.803284 0.454651
0.702942 0.798737 0.435669
0.824005 0.809265 0.424286
0.926514 0.816986 0.445984
0.033630 0.904144 0.502350
0.135223 0.909027 0.504150
0.262848 0.911865 0.506989
0.408875 0.915680 0.504791
0.565277 0.920532 0.497284
0.707062 0.919830 0.478973
0.827362 0.921722 0.470062
0.922058 0.922333 0.482758
0.023285 0.023804 0.279144
0.101776 0.023285 0.277832
0.192657 0.023285 0.273254
0.317261 0.023285 0.268494
0.471161 0.026917 0.269257
0.633026 0.037903 0.272858
0.771393 0.049500 0.275940
0.897644 0.061310 0.278229
0.023285 0.109558 0.297272
0.101349 0.110992 0.301514
0.202667 0.109833 0.296783
0.351990 0.104797 0.281219
0.537933 0.111237 0.276367
0.688080 0.122772 0.275879
0.813110 0.136078 0.278168
0.912201 0.150696 0.282562
0.023285 0.213562 0.323425
0.101776 0.221863 0.335266
0.199280 0.222778 0.332703
0.349457 0.218903 0.318054
0.544678 0.225159 0.307251
0.707947 0.233643 0.298065
0.827118 0.240387 0.289368
0.913513 0.279785 0.316254
0.023285 0.330963 0.359436
0.101929 0.354645 0.388123
0.203552 0.354889 0.381744
0.349335 0.357819 0.374359
0.543549 0.368256 0.358856
0.707397 0.380280 0.345825
0.829010 0.388763 0.332581
0.916229 0.429993 0.368713
0.024597 0.480896 0.427399
0.104797 0.516022 0.464203
0.209167 0.518646 0.457947
0.359131 0.524323 0.449890
0.533417 0.524323 0.429840
0.707153 0.538635 0.406921
0.831787 0.542816 0.383942
0.919769 0.572235 0.429565
0.027893 0.639099 0.499756
0.108368 0.667572 0.526367
0.214935 0.670990 0.521759
0.367798 0.676697 0.516602
0.541840 0.674194 0.500610
0.695007 0.677368 0.482758
0.830170 0.686981 0.456940
0.923798 0.700653 0.489838
0.031158 0.775879 0.551331
0.111237 0.797699 0.570557
0.219269 0.801086 0.567413
0.373993 0.805878 0.563843
0.547150 0.804779 0.552277
0.692535 0.798065 0.530457
0.824677 0.806610 0.522369
0.927094 0.816376 0.536255
0.033356 0.898102 0.586365
0.125244 0.903290 0.587616
0.250336 0.910553 0.590363
0.394867 0.914642 0.593933
0.551971 0.919495 0.590668
0.700684 0.921967 0.578430
0.825531 0.918610 0.564056
0.922485 0.922302 0.572235
0.023285 0.024017 0.365570
0.101776 0.023285 0.364594
0.189514 0.023285 0.360962
0.306702 0.023285 0.355438
0.455017 0.023560 0.351044
0.618378 0.030579 0.354340
0.761078 0.041321 0.357605
0.890137 0.052460 0.360107
0.023285 0.110565 0.385742
0.101105 0.110718 0.387360
0.192688 0.111053 0.388855
0.333405 0.105560 0.374298
0.514648 0.105713 0.361938
0.673676 0.113464 0.360107
0.805115 0.124573 0.360016
0.912201 0.138245 0.364288
0.023285 0.215393 0.413910
0.101776 0.218933 0.419525
0.189636 0.224792 0.428497
0.332336 0.221252 0.417480
0.514923 0.215393 0.395935
0.688690 0.222076 0.386475
0.824554 0.227142 0.375977
0.913055 0.255829 0.391541
0.023285 0.334320 0.452698
0.101990 0.348999 0.472351
0.192993 0.359161 0.482788
0.331116 0.359222 0.473969
0.513245 0.354218 0.451599
0.687805 0.362030 0.435455
0.825989 0.370117 0.421112
0.915375 0.402649 0.439728
0.024292 0.469574 0.504913
0.104370 0.500549 0.541321
0.197510 0.512177 0.549103
0.340149 0.513519 0.540070
0.514984 0.519379 0.531586
0.688110 0.527496 0.510101
0.827362 0.535187 0.490448
0.919281 0.559021 0.508728
0.027069 0.622528 0.573883
0.107361 0.651398 0.603394
0.202240 0.661804 0.608490
0.348541 0.665375 0.602386
0.523895 0.672241 0.597198
0.681610 0.672089 0.581390
0.828552 0.680023 0.559265
0.923431 0.692230 0.570313
0.030182 0.762054 0.627960
0.110382 0.784790 0.649414
0.206055 0.793488 0.652832
0.355164 0.797211 0.648651
0.529724 0.803467 0.645508
0.686279 0.800995 0.632263
0.819427 0.803436 0.618805
0.926849 0.812225 0.618042
0.032898 0.890350 0.668121
0.117279 0.896637 0.670715
0.238586 0.903900 0.673309
0.381042 0.912659 0.676727
0.537994 0.918304 0.680389
0.689850 0.922089 0.672607
0.817322 0.917908 0.655548
0.922668 0.921997 0.657806
0.023285 0.024200 0.452118
0.101776 0.023285 0.451172
0.188538 0.023285 0.449036
0.297363 0.023285 0.443390
0.439697 0.023285 0.438080
0.601746 0.026062 0.436432
0.749664 0.033752 0.439697
0.881805 0.044220 0.442444
0.023285 0.111755 0.473907
0.100891 0.111420 0.475250
0.188538 0.111511 0.480865
0.317261 0.107361 0.469330
0.495544 0.104492 0.452087
0.656708 0.107239 0.445770
0.794220 0.114929 0.443939
0.912201 0.127563 0.446991
0.023285 0.217438 0.503326
0.101471 0.219177 0.505493
0.187622 0.228302 0.525146
0.317596 0.222107 0.513031
0.492859 0.216125 0.492035
0.667572 0.212982 0.474335
0.813263 0.217529 0.464691
0.912659 0.233459 0.467316
0.023285 0.338013 0.544159
0.101929 0.344208 0.552979
0.189636 0.365234 0.583710
0.315887 0.363403 0.572845
0.493042 0.358948 0.556793
0.666473 0.348694 0.524689
0.812744 0.355133 0.510162
0.914673 0.373932 0.510834
0.024719 0.474335 0.597870
0.104218 0.493317 0.621429
0.192017 0.515350 0.646027
0.324890 0.515869 0.636902
0.494720 0.518555 0.628601
0.667389 0.512909 0.601685
0.813385 0.517944 0.579590
0.918213 0.533630 0.574646
0.026672 0.611206 0.648865
0.106842 0.638153 0.677734
0.194550 0.655670 0.693909
0.332275 0.658020 0.687469
0.504364 0.662323 0.681213
0.669220 0.668427 0.675018
0.814972 0.672760 0.657135
0.922943 0.680389 0.647003
0.029419 0.749298 0.701263
0.109528 0.771973 0.724121
0.197174 0.786255 0.735229
0.338837 0.789581 0.730804
0.511261 0.794525 0.726868
0.675018 0.800934 0.723480
0.810028 0.799713 0.710052
0.926483 0.804962 0.695557
0.032196 0.879852 0.743286
0.112183 0.890350 0.750946
0.228027 0.897308 0.753143
0.367981 0.905823 0.756439
0.524200 0.915497 0.760345
0.678497 0.921295 0.760925
0.812897 0.919708 0.749115
0.922668 0.920990 0.738495
0.023285 0.024384 0.536163
0.101990 0.023285 0.535400
0.188416 0.023285 0.533447
0.290222 0.023285 0.527832
0.426788 0.023285 0.523193
0.584747 0.025177 0.519531
0.737885 0.028687 0.519043
0.873260 0.036865 0.521820
0.023285 0.113098 0.559204
0.100647 0.112457 0.560760
0.188416 0.113190 0.567017
0.312012 0.107758 0.564270
0.473999 0.104187 0.542786
0.644379 0.106415 0.530304
0.780945 0.108643 0.526611
0.907745 0.118103 0.526611
0.023285 0.219635 0.590271
0.101135 0.221558 0.592255
0.187347 0.230774 0.615326
0.298615 0.227539 0.605194
0.471649 0.218506 0.588165
0.652924 0.211731 0.564240
0.797668 0.210022 0.549622
0.912354 0.214600 0.541626
0.023376 0.341827 0.633484
0.101929 0.343781 0.636200
0.189850 0.371277 0.679962
0.303314 0.368225 0.669647
0.477753 0.357635 0.654816
0.652313 0.351074 0.623840
0.796631 0.343445 0.596436
0.914246 0.349091 0.583252
0.025146 0.478851 0.688293
0.104095 0.487762 0.699615
0.192688 0.517792 0.738495
0.312012 0.517639 0.729706
0.475800 0.520020 0.722015
0.653992 0.519440 0.707458
0.797516 0.504120 0.667633
0.917755 0.508728 0.646637
0.027039 0.614197 0.736877
0.106689 0.631409 0.756073
0.195129 0.656097 0.783539
0.318481 0.657379 0.776581
0.485931 0.661072 0.770569
0.654877 0.665497 0.765381
0.799652 0.661926 0.743713
0.922211 0.664307 0.723114
0.028992 0.739441 0.775116
0.109009 0.761078 0.798096
0.196930 0.780334 0.817291
0.324280 0.782776 0.812347
0.493317 0.787354 0.808289
0.661530 0.792908 0.804657
0.800751 0.796722 0.798828
0.925018 0.798798 0.783295
0.031464 0.869446 0.817078
0.111053 0.884216 0.830200
0.218384 0.890778 0.832001
0.355621 0.899017 0.835144
0.510284 0.908539 0.839203
0.665833 0.916565 0.840973
0.804871 0.920776 0.837738
0.923279 0.918793 0.825287
0.023285 0.024872 0.619415
0.102570 0.023529 0.619141
0.188416 0.023499 0.616974
0.290833 0.023285 0.614929
0.415405 0.023285 0.606873
0.569092 0.024414 0.602692
0.724670 0.027832 0.599823
0.864349 0.031067 0.599731
0.023285 0.114624 0.643890
0.100433 0.113586 0.645630
0.188629 0.113586 0.646332
0.298126 0.110474 0.651489
0.453400 0.104370 0.633514
0.631042 0.105743 0.617584
0.771362 0.107758 0.608368
0.899902 0.110229 0.605560
0.023285 0.222473 0.677277
0.100800 0.224518 0.679779
0.187103 0.229797 0.694305
0.287903 0.231079 0.698486
0.465179 0.219910 0.690918
0.636169 0.213898 0.658447
0.786835 0.206909 0.636078
0.910492 0.206055 0.622925
0.023682 0.345917 0.723175
0.102203 0.346893 0.724365
0.189392 0.369049 0.759888
0.292297 0.372986 0.766052
0.449646 0.364716 0.749084
0.635468 0.355408 0.726471
0.786530 0.342712 0.690552
0.911591 0.337341 0.666870
0.025543 0.483215 0.778503
0.104126 0.485504 0.781281
0.192749 0.514008 0.820129
0.299774 0.520111 0.822540
0.457733 0.521332 0.814758
0.642426 0.518402 0.804596
0.787903 0.507538 0.771393
0.914001 0.495117 0.733643
0.027466 0.617035 0.825165
0.106567 0.625671 0.835083
0.195251 0.651886 0.866425
0.306091 0.656647 0.865845
0.468018 0.660095 0.860046
0.639496 0.665131 0.855804
0.790222 0.667023 0.844421
0.918091 0.654297 0.811005
0.029358 0.740906 0.861786
0.108887 0.755066 0.877319
0.197083 0.776642 0.900970
0.310974 0.780670 0.899323
0.474854 0.784882 0.895447
0.646576 0.790466 0.892334
0.789886 0.793640 0.887726
0.920715 0.790985 0.869629
0.031006 0.860046 0.892456
0.110626 0.876953 0.909637
0.209839 0.884003 0.912231
0.344086 0.892120 0.915253
0.497528 0.901215 0.919189
0.652344 0.909912 0.922485
0.794739 0.914154 0.919617
0.921844 0.916321 0.913910
