UserFile/Effect/redialc/ikClut_RC/LUT/RcView.CUBE
#Created by: Adobe Photoshop Export Color Lookup Plugin
#Copyright: (C) Copyright 2018 RedialC(个人)
TITLE "RCvIEW"
#LUT size
LUT_3D_SIZE 32
#data domain
DOMAIN_MIN 0.0 0.0 0.0
DOMAIN_MAX 1.0 1.0 1.0
#LUT data points
0.023285 0.023285 0.023285
0.041595 0.023621 0.023315
0.061127 0.023987 0.023315
0.081940 0.024353 0.023285
0.104584 0.024750 0.023285
0.129120 0.025269 0.023285
0.156708 0.026398 0.023285
0.185547 0.027496 0.023285
0.215973 0.028595 0.023285
0.248047 0.029938 0.023285
0.281952 0.031799 0.023285
0.317657 0.034088 0.023285
0.355194 0.036591 0.023468
0.394409 0.039276 0.024139
0.435150 0.042267 0.024963
0.476807 0.045502 0.025848
0.518463 0.049011 0.026794
0.558594 0.052612 0.027740
0.596649 0.056213 0.028625
0.632904 0.059845 0.029480
0.667694 0.063416 0.030273
0.701324 0.066986 0.030975
0.733856 0.070557 0.031677
0.765564 0.074097 0.032288
0.796478 0.077637 0.032776
0.826843 0.081116 0.033264
0.854767 0.084503 0.033569
0.881073 0.087738 0.033722
0.905701 0.090973 0.033783
0.929993 0.096436 0.035828
0.955078 0.104004 0.039612
0.981110 0.112061 0.044281
0.023285 0.043182 0.028137
0.041595 0.043121 0.027405
0.063263 0.043152 0.024139
0.085571 0.043427 0.023499
0.109985 0.044128 0.023285
0.136566 0.044952 0.023285
0.164825 0.046021 0.023285
0.194580 0.047089 0.023285
0.225952 0.048279 0.023285
0.259155 0.050293 0.023285
0.294128 0.052582 0.023285
0.330963 0.055023 0.023315
0.369507 0.057709 0.023956
0.409607 0.060638 0.024719
0.450836 0.063812 0.025604
0.492371 0.067291 0.026550
0.533051 0.070984 0.027496
0.571899 0.074677 0.028412
0.608795 0.078369 0.029297
0.644135 0.082062 0.030090
0.678131 0.085785 0.030823
0.710938 0.089386 0.031525
0.742798 0.092987 0.032135
0.773834 0.096588 0.032684
0.804199 0.100159 0.033173
0.833099 0.103638 0.033539
0.859497 0.106964 0.033752
0.883728 0.110199 0.033783
0.907562 0.114655 0.034882
0.931946 0.121674 0.038239
0.957184 0.130981 0.043671
0.981323 0.138855 0.050354
0.023285 0.065521 0.032990
0.041595 0.065369 0.032227
0.061279 0.065399 0.031311
0.086182 0.066040 0.027649
0.114716 0.065765 0.024597
0.143768 0.066162 0.023743
0.173645 0.066986 0.023376
0.204620 0.068298 0.023285
0.237061 0.069946 0.023285
0.271301 0.072113 0.023285
0.307404 0.074493 0.023376
0.345306 0.077087 0.023834
0.384735 0.079956 0.024597
0.425415 0.083099 0.025421
0.466614 0.086487 0.026306
0.507233 0.090118 0.027283
0.546722 0.093872 0.028229
0.584473 0.097656 0.029114
0.620392 0.101410 0.029938
0.654846 0.105133 0.030701
0.688019 0.108887 0.031403
0.720184 0.112610 0.032043
0.751373 0.116211 0.032593
0.781830 0.119873 0.033112
0.811554 0.123444 0.033508
0.838226 0.126831 0.033752
0.862091 0.130035 0.033783
0.885529 0.133667 0.034119
0.909454 0.140167 0.037048
0.934052 0.149200 0.042236
0.957916 0.159912 0.050415
0.981567 0.166626 0.056519
0.023285 0.089172 0.038025
0.041595 0.089050 0.037323
0.061096 0.088348 0.035950
0.083099 0.088867 0.035217
0.112549 0.089966 0.031464
0.145172 0.090302 0.028137
0.180267 0.090363 0.024750
0.213928 0.091370 0.023834
0.248779 0.093048 0.023468
0.284760 0.095123 0.023438
0.321808 0.097534 0.023743
0.360474 0.100250 0.024445
0.400452 0.103271 0.025238
0.441132 0.106567 0.026154
0.481567 0.110138 0.027039
0.521057 0.113831 0.028015
0.559540 0.117706 0.028900
0.596313 0.121490 0.029755
0.631470 0.125366 0.030579
0.665161 0.129150 0.031281
0.697723 0.132935 0.031921
0.729156 0.136658 0.032532
0.759796 0.140381 0.033020
0.789642 0.144043 0.033478
0.816498 0.147369 0.033691
0.840363 0.150604 0.033752
0.863831 0.153961 0.033783
0.887390 0.160065 0.036377
0.911438 0.168457 0.041107
0.935059 0.178558 0.048401
0.958221 0.190125 0.058014
0.981812 0.195099 0.062988
0.023285 0.114136 0.043823
0.041595 0.114044 0.042908
0.061066 0.113007 0.041168
0.082611 0.112610 0.039948
0.108551 0.113464 0.039154
0.142334 0.115753 0.035217
0.177582 0.116882 0.031738
0.215607 0.117462 0.028534
0.257019 0.118225 0.025146
0.297089 0.119812 0.024231
0.336517 0.122040 0.024506
0.376587 0.124725 0.025146
0.416687 0.127808 0.026001
0.456818 0.131165 0.026917
0.496338 0.134827 0.027832
0.534729 0.138580 0.028748
0.572205 0.142426 0.029602
0.608032 0.146362 0.030426
0.642365 0.150208 0.031189
0.675385 0.154022 0.031830
0.707336 0.157867 0.032440
0.738251 0.161621 0.032959
0.768280 0.165344 0.033386
0.796082 0.168884 0.033722
0.820160 0.172180 0.033783
0.843140 0.175476 0.033813
0.866364 0.180878 0.035767
0.890015 0.189026 0.040344
0.912842 0.198486 0.047211
0.935394 0.209290 0.056091
0.958527 0.220215 0.065399
0.982117 0.224304 0.069794
0.023285 0.141144 0.050812
0.041595 0.140839 0.049500
0.061066 0.139496 0.047302
0.082825 0.138336 0.045410
0.108246 0.138824 0.044373
0.137787 0.140411 0.043549
0.173950 0.143311 0.039703
0.212555 0.144958 0.036072
0.253937 0.146210 0.032867
0.298462 0.147339 0.029877
0.346130 0.148743 0.026825
0.390076 0.151093 0.026642
0.432129 0.153992 0.027069
0.472351 0.157196 0.027710
0.510620 0.160736 0.028595
0.547943 0.164520 0.029480
0.584442 0.168335 0.030304
0.619324 0.172211 0.031067
0.652863 0.176086 0.031769
0.685181 0.179901 0.032379
0.716492 0.183716 0.032898
0.746582 0.187531 0.033356
0.774658 0.191101 0.033661
0.799622 0.194427 0.033783
0.822571 0.198212 0.034149
0.845642 0.203217 0.035828
0.869019 0.210785 0.039917
0.891052 0.219940 0.047058
0.913177 0.229828 0.054962
0.935760 0.240906 0.064209
0.958862 0.250336 0.072815
0.982422 0.254120 0.076996
0.023285 0.169891 0.059052
0.041595 0.169098 0.057281
0.061127 0.167755 0.054932
0.082947 0.166412 0.052643
0.107758 0.165527 0.050507
0.137390 0.166840 0.049500
0.168945 0.168701 0.048859
0.207581 0.172180 0.045349
0.250305 0.174591 0.041443
0.295227 0.176666 0.038177
0.342529 0.178253 0.035248
0.392181 0.180145 0.032410
0.441925 0.182312 0.029480
0.484711 0.185120 0.029236
0.523376 0.188293 0.029724
0.560364 0.191803 0.030334
0.596161 0.195496 0.030945
0.630188 0.199249 0.031677
0.662994 0.203064 0.032288
0.694702 0.206848 0.032837
0.725037 0.210571 0.033295
0.753113 0.214233 0.033630
0.779083 0.217682 0.033783
0.802032 0.221558 0.034393
0.825043 0.226563 0.036041
0.848175 0.233521 0.039764
0.869629 0.242554 0.047089
0.891357 0.252014 0.054871
0.913544 0.262146 0.063232
0.936188 0.273254 0.073059
0.959198 0.280762 0.080414
0.982758 0.284546 0.084656
0.023285 0.199982 0.068146
0.041595 0.199097 0.066101
0.061157 0.197540 0.063446
0.083069 0.195953 0.060852
0.108673 0.194733 0.058533
0.135834 0.193970 0.055969
0.168427 0.196075 0.055481
0.202576 0.198547 0.054810
0.243866 0.202637 0.051483
0.290955 0.206055 0.047211
0.338654 0.208710 0.044067
0.388580 0.211334 0.041138
0.438416 0.213654 0.038391
0.485962 0.216064 0.035492
0.531311 0.218292 0.032379
0.570557 0.221130 0.031860
0.607269 0.224274 0.031799
0.640778 0.227722 0.032288
0.673004 0.231354 0.032806
0.703918 0.235016 0.033264
0.732605 0.238556 0.033630
0.758484 0.241974 0.033783
0.781525 0.245575 0.034149
0.804535 0.250427 0.035828
0.827209 0.257294 0.039948
0.848450 0.266083 0.047302
0.869934 0.275330 0.054962
0.891754 0.285004 0.063171
0.913940 0.295166 0.072174
0.936646 0.306183 0.082611
0.959595 0.311676 0.088531
0.983154 0.315338 0.092834
0.023285 0.231476 0.078125
0.041595 0.230927 0.076233
0.061157 0.229065 0.073120
0.083160 0.227203 0.070068
0.109253 0.225800 0.067444
0.137817 0.224304 0.064880
0.166748 0.223816 0.062683
0.201935 0.227020 0.061890
0.238922 0.230133 0.061249
0.282928 0.234863 0.058197
0.334167 0.239471 0.053528
0.384186 0.242859 0.050537
0.434998 0.246307 0.047485
0.482666 0.249023 0.044678
0.528137 0.251526 0.041687
0.571655 0.253845 0.038513
0.613037 0.256042 0.035095
0.648865 0.258606 0.034119
0.682068 0.261414 0.033691
0.712097 0.264618 0.033752
0.737793 0.267639 0.033783
0.760956 0.270905 0.033936
0.784058 0.275513 0.035461
0.806396 0.282318 0.040131
0.827484 0.290741 0.047546
0.848755 0.299683 0.055237
0.870300 0.308990 0.063446
0.892151 0.318695 0.072266
0.914429 0.328796 0.081879
0.937134 0.339020 0.092468
0.959991 0.342926 0.097107
0.983582 0.346588 0.101563
0.023285 0.264984 0.089630
0.041595 0.264740 0.087708
0.061157 0.262543 0.084045
0.083313 0.260406 0.080566
0.109924 0.258759 0.077576
0.138733 0.257141 0.074677
0.166901 0.255585 0.070770
0.199493 0.255615 0.069336
0.238312 0.259796 0.069031
0.278015 0.263641 0.068298
0.324463 0.269043 0.065552
0.379303 0.274994 0.060547
0.430176 0.279083 0.057556
0.479004 0.282928 0.054504
0.525085 0.286194 0.051300
0.568695 0.288666 0.048126
0.610321 0.290985 0.044769
0.649414 0.293060 0.041321
0.686432 0.294891 0.037720
0.716095 0.296783 0.035797
0.740326 0.298553 0.034424
0.763550 0.302216 0.035156
0.785675 0.308899 0.040436
0.806671 0.316864 0.047882
0.827820 0.325378 0.055695
0.849152 0.334198 0.063904
0.870758 0.343353 0.072662
0.892639 0.352997 0.082153
0.914978 0.362640 0.092468
0.937622 0.370819 0.101746
0.960480 0.374359 0.106262
0.984039 0.377838 0.110779
0.023285 0.300659 0.102814
0.041595 0.300598 0.100800
0.061066 0.298126 0.096619
0.083710 0.295746 0.092621
0.110687 0.293793 0.089111
0.139679 0.291901 0.085754
0.170013 0.289795 0.082336
0.199768 0.288330 0.078186
0.236542 0.290405 0.077209
0.278412 0.295654 0.076813
0.319794 0.299316 0.075989
0.368195 0.305298 0.073547
0.424011 0.312378 0.068848
0.474609 0.317200 0.065094
0.521301 0.321167 0.061768
0.565857 0.324890 0.058289
0.607635 0.327423 0.054840
0.646912 0.329590 0.051270
0.684082 0.331512 0.047668
0.716217 0.332947 0.043823
0.742126 0.333954 0.039673
0.765015 0.337799 0.041321
0.785919 0.344666 0.048309
0.807007 0.352417 0.056152
0.828217 0.360687 0.064484
0.849609 0.369293 0.073303
0.871246 0.378296 0.082733
0.893219 0.387512 0.092957
0.915588 0.396698 0.104034
0.938110 0.402344 0.111389
0.960938 0.405762 0.115997
0.984528 0.409119 0.120605
0.023438 0.338806 0.118103
0.041687 0.338593 0.115662
0.061157 0.335876 0.110931
0.084198 0.333221 0.106384
0.111603 0.330994 0.102325
0.140747 0.328827 0.098419
0.171417 0.326630 0.094574
0.202423 0.324097 0.089783
0.233887 0.322968 0.085602
0.276337 0.327118 0.085785
0.320740 0.333130 0.085358
0.363892 0.337036 0.084473
0.413330 0.343567 0.082336
0.467926 0.351440 0.077576
0.517059 0.356842 0.073120
0.561798 0.360840 0.069550
0.604584 0.364532 0.065796
0.644409 0.367432 0.061920
0.681732 0.369476 0.058136
0.714813 0.370972 0.054169
0.740814 0.372009 0.049957
0.765289 0.375092 0.049408
0.786285 0.381561 0.056854
0.807404 0.388916 0.065186
0.828674 0.396759 0.074097
0.850098 0.404846 0.083588
0.871826 0.413361 0.093750
0.893860 0.421967 0.104736
0.916260 0.430450 0.116547
0.938629 0.433868 0.121582
0.961456 0.437042 0.126251
0.985046 0.440277 0.130920
0.024109 0.379242 0.135498
0.042328 0.378448 0.132233
0.061768 0.375793 0.127197
0.084869 0.372925 0.122040
0.112610 0.370422 0.117371
0.141998 0.367950 0.112854
0.172852 0.365417 0.108368
0.205719 0.362915 0.104034
0.236359 0.360016 0.097351
0.272186 0.359650 0.095001
0.318207 0.365234 0.095276
0.365021 0.372498 0.094666
0.409485 0.376831 0.093781
0.457825 0.383545 0.091827
0.509460 0.391785 0.086945
0.557983 0.397766 0.081604
0.601013 0.401703 0.077698
0.641418 0.405182 0.073486
0.679443 0.408264 0.069305
0.712982 0.409973 0.065186
0.739594 0.410980 0.060730
0.764557 0.413513 0.059235
0.786713 0.419281 0.066101
0.807892 0.425873 0.075104
0.829193 0.433044 0.084656
0.850708 0.440521 0.094818
0.872467 0.448242 0.105713
0.894531 0.456085 0.117584
0.916962 0.463348 0.129272
0.939209 0.465332 0.132385
0.962067 0.468323 0.137085
0.985657 0.471405 0.141846
0.024994 0.421478 0.154755
0.043213 0.420135 0.150726
0.062836 0.417633 0.145447
0.085815 0.414581 0.139709
0.113800 0.411865 0.134430
0.143402 0.409119 0.129211
0.174469 0.406311 0.124084
0.207611 0.403564 0.119171
0.242249 0.400360 0.113953
0.273102 0.398193 0.106384
0.313354 0.398224 0.105499
0.363159 0.406433 0.105652
0.410675 0.413696 0.104919
0.454803 0.418274 0.103943
0.500366 0.424713 0.101837
0.549683 0.433075 0.096710
0.597046 0.439270 0.090729
0.638214 0.443085 0.086121
0.676422 0.446259 0.081726
0.710846 0.448883 0.077148
0.738434 0.450592 0.072357
0.763397 0.452484 0.070374
0.787201 0.457397 0.076355
0.808411 0.462982 0.085968
0.829773 0.469147 0.096161
0.851349 0.475891 0.107086
0.873169 0.482819 0.118805
0.895294 0.489746 0.131134
0.917572 0.495148 0.140991
0.939819 0.496796 0.143860
0.962677 0.499512 0.148468
0.986267 0.502380 0.153259
0.025970 0.464020 0.174866
0.044220 0.463135 0.171112
0.063873 0.460571 0.165375
0.086914 0.457611 0.159241
0.115143 0.454773 0.153351
0.144989 0.451874 0.147522
0.176300 0.448853 0.141785
0.209625 0.445923 0.136139
0.244995 0.442993 0.130768
0.278015 0.439453 0.122681
0.313110 0.438019 0.116882
0.358612 0.440430 0.116943
0.410095 0.449738 0.117035
0.455994 0.456116 0.116058
0.498169 0.460510 0.114685
0.541199 0.466339 0.112366
0.588715 0.474548 0.106812
0.633484 0.480469 0.100647
0.673492 0.484222 0.095123
0.709167 0.486816 0.090393
0.737000 0.488800 0.085175
0.762329 0.491241 0.082825
0.787506 0.495239 0.087738
0.809052 0.499756 0.097870
0.830444 0.505066 0.108734
0.852081 0.510864 0.120422
0.873932 0.517090 0.132996
0.896118 0.523193 0.145691
0.918243 0.526703 0.153015
0.940460 0.528259 0.155884
0.963287 0.530701 0.160339
0.986908 0.533447 0.165161
0.026978 0.505920 0.195038
0.045227 0.505310 0.191711
0.064880 0.502838 0.186035
0.088043 0.500244 0.179962
0.116547 0.497620 0.173767
0.146698 0.494904 0.167511
0.178253 0.492004 0.161194
0.211823 0.489105 0.154968
0.247406 0.486206 0.148926
0.284515 0.482819 0.142639
0.318237 0.479767 0.133789
0.356323 0.479126 0.129089
0.405640 0.483978 0.129425
0.456726 0.493774 0.129303
0.499329 0.498596 0.127747
0.539703 0.502472 0.125885
0.580902 0.507538 0.123291
0.625885 0.515076 0.117523
0.668213 0.520538 0.111023
0.706726 0.524139 0.104553
0.735565 0.526031 0.099121
0.760773 0.527985 0.095276
0.786316 0.531891 0.100769
0.809753 0.536407 0.110931
0.831207 0.540680 0.122498
0.852905 0.545654 0.134949
0.874847 0.551056 0.148193
0.897003 0.556396 0.161011
0.918915 0.558319 0.165527
0.941162 0.559692 0.168396
0.964020 0.561890 0.172699
0.987610 0.564362 0.177460
0.028015 0.546600 0.214172
0.046234 0.546082 0.211151
0.065704 0.543671 0.205780
0.089264 0.541412 0.200195
0.118011 0.539154 0.194397
0.148407 0.536713 0.188171
0.180237 0.534149 0.181702
0.214050 0.531586 0.175140
0.249878 0.528961 0.168610
0.287659 0.526306 0.162201
0.324249 0.523163 0.153931
0.358002 0.520660 0.143982
0.401428 0.520508 0.142456
0.451752 0.526489 0.142761
0.500610 0.536102 0.142059
0.540863 0.539886 0.139893
0.579926 0.543274 0.137512
0.618805 0.547455 0.134766
0.661224 0.554321 0.128784
0.701416 0.559296 0.121887
0.733978 0.562469 0.114349
0.759369 0.564301 0.109467
0.784912 0.567322 0.114349
0.810516 0.571747 0.124878
0.832062 0.575867 0.137451
0.853790 0.580078 0.150574
0.875763 0.584656 0.164001
0.897888 0.588745 0.175598
0.919678 0.589813 0.178406
0.941925 0.591003 0.181244
0.964752 0.592865 0.185364
0.988342 0.595062 0.190002
0.028961 0.585052 0.231476
0.047211 0.584808 0.228912
0.066528 0.582520 0.223877
0.090393 0.580475 0.218781
0.119385 0.578552 0.213531
0.150024 0.576416 0.207794
0.182098 0.574127 0.201691
0.216187 0.571869 0.195374
0.252197 0.569580 0.188843
0.290192 0.567230 0.182129
0.329620 0.564575 0.175232
0.366669 0.561462 0.165955
0.401184 0.560364 0.156372
0.447723 0.561157 0.156525
0.496704 0.567780 0.156555
0.542084 0.575928 0.154877
0.581024 0.579285 0.152161
0.618408 0.582153 0.149353
0.654846 0.585449 0.146393
0.695129 0.591675 0.140015
0.730194 0.596008 0.132874
0.757263 0.598877 0.125427
0.783508 0.601593 0.128479
0.809479 0.605286 0.139893
0.832947 0.609070 0.152740
0.854736 0.613129 0.166565
0.876740 0.617188 0.179749
0.898651 0.619781 0.188538
0.920471 0.620575 0.191254
0.942719 0.621521 0.194031
0.965515 0.623047 0.197876
0.989136 0.625000 0.202423
0.029846 0.621613 0.247223
0.048096 0.621399 0.244934
0.067505 0.619415 0.240265
0.091400 0.617584 0.235626
0.120667 0.615906 0.230896
0.151550 0.614014 0.225677
0.183838 0.612000 0.220123
0.218140 0.609985 0.214294
0.254364 0.607941 0.208191
0.292511 0.605865 0.201782
0.332397 0.603790 0.195190
0.372345 0.601471 0.187469
0.405090 0.598602 0.174286
0.446625 0.598267 0.170471
0.493103 0.600342 0.170593
0.540649 0.608185 0.170074
0.582245 0.613831 0.167480
0.619507 0.616638 0.164368
0.654999 0.619080 0.161194
0.689392 0.621674 0.157990
0.726196 0.627258 0.151428
0.754028 0.630890 0.143616
0.780731 0.633911 0.142975
0.808075 0.637634 0.155334
0.833862 0.641479 0.168579
0.855743 0.644806 0.182678
0.877716 0.648224 0.195465
0.899475 0.650055 0.201355
0.921265 0.650726 0.204010
0.943512 0.651398 0.206604
0.966309 0.652618 0.210175
0.989929 0.654327 0.214539
0.030670 0.656647 0.261749
0.048920 0.656189 0.259308
0.068542 0.654663 0.255402
0.092377 0.652954 0.251068
0.121887 0.651520 0.246765
0.152924 0.649811 0.242004
0.185425 0.648041 0.236908
0.219940 0.646240 0.231598
0.256378 0.644440 0.225983
0.294678 0.642609 0.220093
0.334656 0.640778 0.213959
0.375916 0.638947 0.207550
0.414917 0.635925 0.198303
0.446198 0.634491 0.184692
0.491180 0.634491 0.184692
0.536469 0.637817 0.184662
0.582672 0.646545 0.183197
0.620667 0.649963 0.179901
0.656097 0.652313 0.176453
0.689880 0.654358 0.172913
0.721649 0.656342 0.169556
0.751282 0.661133 0.162292
0.777557 0.664459 0.158386
0.804901 0.668060 0.170685
0.832245 0.672211 0.184723
0.856781 0.675690 0.198669
0.878754 0.678436 0.210632
0.900208 0.679108 0.213470
0.922058 0.679871 0.216095
0.944275 0.680603 0.218628
0.967072 0.681580 0.221863
0.990662 0.682953 0.226044
0.031433 0.690338 0.275177
0.049683 0.689789 0.272736
0.069519 0.688507 0.269226
0.093292 0.686951 0.265259
0.122986 0.685730 0.261353
0.154236 0.684174 0.256989
0.186920 0.682587 0.252258
0.221619 0.681000 0.247406
0.258240 0.679382 0.242249
0.296692 0.677765 0.236847
0.336731 0.676147 0.231232
0.377991 0.674530 0.225342
0.419739 0.672729 0.218964
0.452179 0.669983 0.204987
0.490845 0.669403 0.198853
0.533783 0.669434 0.198853
0.578918 0.674622 0.198639
0.621887 0.682343 0.195892
0.657227 0.684631 0.192200
0.690948 0.686615 0.188446
0.722443 0.688293 0.184509
0.749023 0.689758 0.180542
0.774841 0.693726 0.175446
0.801941 0.697144 0.185608
0.829315 0.701111 0.200195
0.856720 0.705505 0.214050
0.879517 0.707367 0.222565
0.900970 0.707703 0.225006
0.922791 0.708252 0.227478
0.945007 0.708893 0.229950
0.967804 0.709839 0.232941
0.991364 0.711151 0.236969
0.032135 0.722809 0.287506
0.050385 0.722412 0.285370
0.070221 0.721130 0.281952
0.094025 0.719727 0.278259
0.123962 0.718658 0.274750
0.155365 0.717285 0.270691
0.188263 0.715851 0.266388
0.223145 0.714478 0.261871
0.259888 0.713013 0.257172
0.298492 0.711609 0.252228
0.338623 0.710205 0.247070
0.379913 0.708771 0.241638
0.421814 0.707367 0.235992
0.461151 0.705048 0.227753
0.491455 0.703247 0.213654
0.533508 0.703186 0.212646
0.575256 0.703522 0.212799
0.620239 0.711304 0.211548
0.658417 0.716095 0.208160
0.692078 0.718079 0.204224
0.723724 0.719696 0.200226
0.749969 0.720886 0.195709
0.772980 0.721924 0.192474
0.799225 0.725281 0.199982
0.826508 0.729065 0.214844
0.853882 0.733276 0.228455
0.880219 0.735657 0.233368
0.901672 0.735657 0.235718
0.923431 0.735962 0.238098
0.945679 0.736389 0.240448
0.968475 0.737152 0.243164
0.992004 0.738403 0.247040
0.032745 0.754272 0.298859
0.050995 0.754028 0.297028
0.070740 0.752716 0.293732
0.094727 0.751404 0.290314
0.124847 0.750488 0.287048
0.156433 0.749298 0.283386
0.189484 0.748047 0.279388
0.224518 0.746796 0.275269
0.261414 0.745544 0.270935
0.300110 0.744293 0.266388
0.340332 0.743073 0.261627
0.381622 0.741852 0.256653
0.423523 0.740631 0.251495
0.465210 0.739166 0.245789
0.498199 0.736694 0.233643
0.533203 0.735931 0.225739
0.574768 0.735931 0.225739
0.616089 0.738159 0.225586
0.658325 0.745697 0.223541
0.693298 0.748810 0.219879
0.725006 0.750427 0.215790
0.750977 0.751526 0.211334
0.773895 0.752350 0.207245
0.797577 0.752930 0.213959
0.824066 0.756104 0.228546
0.851288 0.760162 0.241852
0.877991 0.762756 0.246368
0.902313 0.763153 0.245758
0.924103 0.763214 0.248077
0.946289 0.763458 0.250305
0.969086 0.763977 0.252716
0.992645 0.765015 0.256470
0.033264 0.784821 0.309448
0.051544 0.784698 0.307861
0.071045 0.783386 0.304718
0.095490 0.782227 0.301544
0.125641 0.781403 0.298523
0.157379 0.780396 0.295135
0.190582 0.779297 0.291534
0.225739 0.778229 0.287689
0.262817 0.777130 0.283691
0.301605 0.776062 0.279480
0.341919 0.774963 0.275116
0.383209 0.773926 0.270538
0.425079 0.772888 0.265778
0.467010 0.771820 0.260803
0.504761 0.769836 0.252960
0.535309 0.768066 0.240570
0.574493 0.767853 0.238068
0.614197 0.767853 0.238068
0.655060 0.772156 0.237427
0.694000 0.778503 0.234711
0.726288 0.780548 0.230957
0.752014 0.781647 0.226563
0.774902 0.782440 0.222168
0.798584 0.782410 0.228577
0.822754 0.782959 0.241699
0.848877 0.786224 0.254425
0.875397 0.788940 0.258392
0.901764 0.790253 0.256561
0.924713 0.790314 0.257599
0.946899 0.790314 0.259796
0.969696 0.790649 0.262085
0.993225 0.791443 0.265503
0.033691 0.813904 0.319153
0.051971 0.813904 0.317780
0.071411 0.813141 0.314819
0.096039 0.812256 0.311920
0.126312 0.811523 0.309113
0.158234 0.810699 0.306030
0.191559 0.809753 0.302673
0.226868 0.808807 0.299164
0.264069 0.807861 0.295502
0.302979 0.806976 0.291656
0.343384 0.806030 0.287628
0.384674 0.805145 0.283478
0.426544 0.804291 0.279053
0.468414 0.803436 0.274445
0.508606 0.802032 0.269073
0.541168 0.799866 0.258118
0.574127 0.799042 0.249634
0.613983 0.799042 0.249634
0.651703 0.799133 0.249695
0.692291 0.805695 0.248291
0.727020 0.809937 0.245148
0.753021 0.811188 0.241058
0.775909 0.811981 0.236938
0.799591 0.811615 0.243011
0.823700 0.811462 0.254852
0.847839 0.812469 0.266388
0.873108 0.814606 0.270569
0.899261 0.816315 0.268646
0.925323 0.817352 0.266846
0.947510 0.817078 0.268921
0.970276 0.817169 0.271088
0.993805 0.817749 0.274200
0.033783 0.838043 0.327454
0.052063 0.838043 0.326202
0.071655 0.838043 0.323822
0.096252 0.838104 0.321320
0.126740 0.838379 0.318878
0.158844 0.838654 0.316132
0.192383 0.838959 0.313110
0.227875 0.838745 0.309967
0.265198 0.838013 0.306549
0.304230 0.837219 0.303009
0.344666 0.836487 0.299347
0.386017 0.835785 0.295471
0.427887 0.835083 0.291443
0.469696 0.834351 0.287231
0.510162 0.833466 0.282593
0.546295 0.831757 0.275024
0.577362 0.830078 0.264313
0.613647 0.829742 0.260590
0.651428 0.829742 0.260590
0.688599 0.831421 0.260345
0.726379 0.837830 0.258331
0.753998 0.840332 0.254669
0.776947 0.841064 0.251190
0.800568 0.840363 0.256622
0.824615 0.839722 0.267731
0.848572 0.840057 0.276886
0.872131 0.840454 0.280823
0.896973 0.841736 0.279938
0.923462 0.843384 0.277832
0.948090 0.843750 0.277710
0.970856 0.843628 0.279816
0.994354 0.843994 0.282623
0.033783 0.860870 0.331024
0.053070 0.860962 0.329987
0.076843 0.861298 0.328888
0.102142 0.861694 0.327454
0.131409 0.862366 0.325958
0.161926 0.863068 0.324249
0.193542 0.863770 0.322418
0.228424 0.864410 0.319824
0.265961 0.864990 0.316772
0.305237 0.865631 0.313629
0.345856 0.866272 0.310333
0.387238 0.865814 0.306793
0.429108 0.865265 0.303131
0.470917 0.864746 0.299225
0.511353 0.864044 0.294952
0.550140 0.862823 0.289978
0.582092 0.860779 0.279694
0.613220 0.859985 0.271027
0.651154 0.859985 0.271027
0.687103 0.859985 0.271027
0.723938 0.863220 0.270294
0.754517 0.868378 0.267487
0.777924 0.869720 0.264648
0.801514 0.868744 0.269501
0.825531 0.867584 0.279907
0.849274 0.867462 0.286896
0.872711 0.867584 0.289398
0.896179 0.867706 0.289520
0.921234 0.868805 0.288666
0.948242 0.870483 0.286530
0.971405 0.870178 0.288239
0.994904 0.870300 0.290771
0.036682 0.884125 0.333374
0.061066 0.884644 0.332764
0.085724 0.885040 0.331909
0.113434 0.885590 0.331085
0.142426 0.886200 0.330170
0.172699 0.886841 0.329132
0.204041 0.887512 0.327972
0.237396 0.888306 0.326447
0.272339 0.889191 0.324707
0.308685 0.890106 0.322693
0.346588 0.891174 0.320343
0.388123 0.892273 0.317200
0.430115 0.893127 0.313904
0.471954 0.893982 0.310425
0.512421 0.894226 0.306549
0.551422 0.893433 0.302216
